static/icono.textiles.svg

<?xml version="1.0" encoding="UTF-8" standalone="no"?>
<svg
   xmlns:dc="http://purl.org/dc/elements/1.1/"
   xmlns:cc="http://creativecommons.org/ns#"
   xmlns:rdf="http://www.w3.org/1999/02/22-rdf-syntax-ns#"
   xmlns:svg="http://www.w3.org/2000/svg"
   xmlns="http://www.w3.org/2000/svg"
   xmlns:sodipodi="http://sodipodi.sourceforge.net/DTD/sodipodi-0.dtd"
   xmlns:inkscape="http://www.inkscape.org/namespaces/inkscape"
   width="36"
   height="48"
   viewBox="0 0 36 48"
   fill="none"
   version="1.1"
   id="svg81"
   sodipodi:docname="icono.textiles.svg"
   inkscape:version="0.92.3 (2405546, 2018-03-11)">
  <metadata
     id="metadata87">
    <rdf:RDF>
      <cc:Work
         rdf:about="">
        <dc:format>image/svg+xml</dc:format>
        <dc:type
           rdf:resource="http://purl.org/dc/dcmitype/StillImage" />
      </cc:Work>
    </rdf:RDF>
  </metadata>
  <defs
     id="defs85" />
  <sodipodi:namedview
     pagecolor="#ffffff"
     bordercolor="#666666"
     borderopacity="1"
     objecttolerance="10"
     gridtolerance="10"
     guidetolerance="10"
     inkscape:pageopacity="0"
     inkscape:pageshadow="2"
     inkscape:window-width="944"
     inkscape:window-height="670"
     id="namedview83"
     showgrid="false"
     inkscape:zoom="7.6054687"
     inkscape:cx="18"
     inkscape:cy="24"
     inkscape:window-x="0"
     inkscape:window-y="27"
     inkscape:window-maximized="0"
     inkscape:current-layer="svg81" />
  <path
     d="M34.2929 0.22998V3.51142H26.9623V0.22998H25.7573V3.51142H18.3766V0.22998H17.1715V3.51142H9.79079V0.22998H8.58577V3.51142H1.20502V0.22998H0V3.51142V4.09914V43.1825V43.7703V47.0517H1.20502V43.7703H8.58577V47.0517H9.79079V43.7703H17.1715V47.0517H18.3766V43.7703H25.7573V47.0517H26.9623V43.7703H34.3431V47.0517H35.5481V43.7703V43.1825V4.09914V3.51142V0.22998H34.2929ZM1.20502 4.68686H34.2929V42.5948H1.20502V4.68686Z"
     fill="white"
     id="path59"
     style="fill:#000000" />
  <path
     d="M16.3682 21.3389L15.5146 22.1225L16.9707 23.5428L15.5146 24.9632L16.3682 25.7468L17.7238 24.4244L19.1799 25.7468L20.0334 24.9632L18.5774 23.5428L20.0334 22.1225L19.1799 21.3389L17.7238 22.6612L16.3682 21.3389Z"
     fill="white"
     id="path61"
     style="fill:#000000" />
  <path
     d="M9.28857 23.6898L17.7237 31.9179L26.1588 23.6898L17.7237 15.4617L9.28857 23.6898ZM17.7237 30.2527L11.0459 23.6898L17.8241 17.1269L24.6023 23.6898L17.7237 30.2527Z"
     fill="white"
     id="path63"
     style="fill:#000000" />
  <path
     d="M17.7234 12.4741C18.1251 12.4741 18.4263 12.1803 18.4263 11.7884C18.4263 11.3966 18.1251 11.1028 17.7234 11.1028C17.3218 11.1028 17.0205 11.3966 17.0205 11.7884C17.0707 12.1803 17.372 12.4741 17.7234 12.4741Z"
     fill="white"
     id="path65"
     style="fill:#000000" />
  <path
     d="M17.724 12.719C17.2219 12.719 16.77 12.3272 16.77 11.7885C16.77 11.2497 17.1717 10.8579 17.724 10.8579C18.2763 10.8579 18.678 11.2497 18.678 11.7885C18.678 12.3272 18.2763 12.719 17.724 12.719ZM17.724 11.3966C17.4729 11.3966 17.2721 11.5926 17.2721 11.8374C17.2721 12.0823 17.4729 12.2782 17.724 12.2782C17.975 12.2782 18.1759 12.0823 18.1759 11.8374C18.1759 11.5926 17.975 11.3966 17.724 11.3966Z"
     fill="white"
     id="path67"
     style="fill:#000000" />
  <path
     d="M17.7234 37.1094C18.1251 37.1094 18.4263 36.8155 18.4263 36.4237C18.4263 36.0319 18.1251 35.738 17.7234 35.738C17.3218 35.738 17.0205 36.0319 17.0205 36.4237C17.0205 36.8155 17.372 37.1094 17.7234 37.1094Z"
     fill="white"
     id="path69"
     style="fill:#000000" />
  <path
     d="M17.724 37.3543C17.2219 37.3543 16.77 36.9625 16.77 36.4237C16.77 35.885 17.1717 35.4932 17.724 35.4932C18.2763 35.4932 18.678 35.885 18.678 36.4237C18.678 36.9625 18.2763 37.3543 17.724 37.3543ZM17.724 36.0319C17.4729 36.0319 17.2721 36.2278 17.2721 36.4727C17.2721 36.7176 17.4729 36.9135 17.724 36.9135C17.975 36.9135 18.1759 36.7176 18.1759 36.4727C18.1759 36.2278 17.975 36.0319 17.724 36.0319Z"
     fill="white"
     id="path71"
     style="fill:#000000" />
  <path
     d="M30.4769 24.3264C30.8786 24.3264 31.1798 24.0325 31.1798 23.6407C31.1798 23.2489 30.8786 22.9551 30.4769 22.9551C30.0752 22.9551 29.7739 23.2489 29.7739 23.6407C29.7739 24.0325 30.0752 24.3264 30.4769 24.3264Z"
     fill="white"
     id="path73"
     style="fill:#000000" />
  <path
     d="M30.4769 24.5714C29.9748 24.5714 29.5229 24.1795 29.5229 23.6408C29.5229 23.102 29.9246 22.7102 30.4769 22.7102C30.979 22.7102 31.4308 23.102 31.4308 23.6408C31.4308 24.1795 30.979 24.5714 30.4769 24.5714ZM30.4769 23.249C30.2259 23.249 30.025 23.4449 30.025 23.6898C30.025 23.9346 30.2259 24.1305 30.4769 24.1305C30.7279 24.1305 30.9288 23.9346 30.9288 23.6898C30.9288 23.4449 30.6777 23.249 30.4769 23.249Z"
     fill="white"
     id="path75"
     style="fill:#000000" />
  <path
     d="M5.0711 24.3264C5.47278 24.3264 5.77405 24.0325 5.77405 23.6407C5.77405 23.2489 5.47278 22.9551 5.0711 22.9551C4.66942 22.9551 4.36816 23.2489 4.36816 23.6407C4.41837 24.0325 4.71963 24.3264 5.0711 24.3264Z"
     fill="white"
     id="path77"
     style="fill:#000000" />
  <path
     d="M5.07116 24.5714C4.56907 24.5714 4.11719 24.1795 4.11719 23.6408C4.11719 23.102 4.51886 22.7102 5.07116 22.7102C5.62347 22.7102 6.02515 23.102 6.02515 23.6408C6.02515 24.1795 5.62347 24.5714 5.07116 24.5714ZM5.07116 23.249C4.82012 23.249 4.61928 23.4449 4.61928 23.6898C4.61928 23.9346 4.82012 24.1305 5.07116 24.1305C5.32221 24.1305 5.52305 23.9346 5.52305 23.6898C5.52305 23.4449 5.32221 23.249 5.07116 23.249Z"
     fill="white"
     id="path79"
     style="fill:#000000" />
</svg>

<?xml version="1.0" encoding="utf-8"?>
<!-- Generator: Adobe Illustrator 22.0.1, SVG Export Plug-In . SVG Version: 6.00 Build 0)  -->
<svg version="1.1"
	 id="svg81" inkscape:version="0.92.3 (2405546, 2018-03-11)" sodipodi:docname="icono.textiles.svg" xmlns:cc="http://creativecommons.org/ns#" xmlns:dc="http://purl.org/dc/elements/1.1/" xmlns:inkscape="http://www.inkscape.org/namespaces/inkscape" xmlns:rdf="http://www.w3.org/1999/02/22-rdf-syntax-ns#" xmlns:sodipodi="http://sodipodi.sourceforge.net/DTD/sodipodi-0.dtd" xmlns:svg="http://www.w3.org/2000/svg"
	 xmlns="http://www.w3.org/2000/svg" xmlns:xlink="http://www.w3.org/1999/xlink" x="0px" y="0px" viewBox="0 0 36 48"
	 style="enable-background:new 0 0 36 48;" xml:space="preserve">
<style type="text/css">
	.st0{fill:#FFFFFF;}
</style>
<sodipodi:namedview  bordercolor="#666666" borderopacity="1" gridtolerance="10" guidetolerance="10" id="namedview83" inkscape:current-layer="svg81" inkscape:cx="18" inkscape:cy="24" inkscape:pageopacity="0" inkscape:pageshadow="2" inkscape:window-height="670" inkscape:window-maximized="0" inkscape:window-width="944" inkscape:window-x="0" inkscape:window-y="27" inkscape:zoom="7.6054687" objecttolerance="10" pagecolor="#ffffff" showgrid="false">
	</sodipodi:namedview>
<path id="path59" class="st0" d="M34.3,0.2v3.3H27V0.2h-1.2v3.3h-7.4V0.2h-1.2v3.3H9.8V0.2H8.6v3.3H1.2V0.2H0v3.3v0.6v39.1v0.6v3.3
	h1.2v-3.3h7.4v3.3h1.2v-3.3h7.4v3.3h1.2v-3.3h7.4v3.3H27v-3.3h7.4v3.3h1.2v-3.3v-0.6V4.1V3.5V0.2H34.3z M1.2,4.7h33.1v37.9H1.2V4.7z
	"/>
<path id="path61" class="st0" d="M16.4,21.3l-0.9,0.8l1.5,1.4L15.5,25l0.9,0.8l1.4-1.3l1.5,1.3L20,25l-1.5-1.4l1.5-1.4l-0.9-0.8
	l-1.5,1.3L16.4,21.3z"/>
<path id="path63" class="st0" d="M9.3,23.7l8.4,8.2l8.4-8.2l-8.4-8.2L9.3,23.7z M17.7,30.3L11,23.7l6.8-6.6l6.8,6.6L17.7,30.3z"/>
<path id="path65" class="st0" d="M17.7,12.5c0.4,0,0.7-0.3,0.7-0.7c0-0.4-0.3-0.7-0.7-0.7c-0.4,0-0.7,0.3-0.7,0.7
	C17.1,12.2,17.4,12.5,17.7,12.5z"/>
<path id="path67" class="st0" d="M17.7,12.7c-0.5,0-1-0.4-1-0.9c0-0.5,0.4-0.9,1-0.9c0.6,0,1,0.4,1,0.9
	C18.7,12.3,18.3,12.7,17.7,12.7z M17.7,11.4c-0.3,0-0.5,0.2-0.5,0.4c0,0.2,0.2,0.4,0.5,0.4c0.3,0,0.5-0.2,0.5-0.4
	C18.2,11.6,18,11.4,17.7,11.4z"/>
<path id="path69" class="st0" d="M17.7,37.1c0.4,0,0.7-0.3,0.7-0.7s-0.3-0.7-0.7-0.7c-0.4,0-0.7,0.3-0.7,0.7S17.4,37.1,17.7,37.1z"
	/>
<path id="path71" class="st0" d="M17.7,37.4c-0.5,0-1-0.4-1-0.9c0-0.5,0.4-0.9,1-0.9c0.6,0,1,0.4,1,0.9C18.7,37,18.3,37.4,17.7,37.4
	z M17.7,36c-0.3,0-0.5,0.2-0.5,0.4c0,0.2,0.2,0.4,0.5,0.4c0.3,0,0.5-0.2,0.5-0.4C18.2,36.2,18,36,17.7,36z"/>
<path id="path73" class="st0" d="M30.5,24.3c0.4,0,0.7-0.3,0.7-0.7S30.9,23,30.5,23c-0.4,0-0.7,0.3-0.7,0.7S30.1,24.3,30.5,24.3z"/>
<path id="path75" class="st0" d="M30.5,24.6c-0.5,0-1-0.4-1-0.9c0-0.5,0.4-0.9,1-0.9c0.5,0,1,0.4,1,0.9C31.4,24.2,31,24.6,30.5,24.6
	z M30.5,23.2c-0.3,0-0.5,0.2-0.5,0.4c0,0.2,0.2,0.4,0.5,0.4s0.5-0.2,0.5-0.4C30.9,23.4,30.7,23.2,30.5,23.2z"/>
<path id="path77" class="st0" d="M5.1,24.3c0.4,0,0.7-0.3,0.7-0.7S5.5,23,5.1,23c-0.4,0-0.7,0.3-0.7,0.7C4.4,24,4.7,24.3,5.1,24.3z"
	/>
<path id="path79" class="st0" d="M5.1,24.6c-0.5,0-1-0.4-1-0.9c0-0.5,0.4-0.9,1-0.9c0.6,0,1,0.4,1,0.9C6,24.2,5.6,24.6,5.1,24.6z
	 M5.1,23.2c-0.3,0-0.5,0.2-0.5,0.4c0,0.2,0.2,0.4,0.5,0.4c0.3,0,0.5-0.2,0.5-0.4C5.5,23.4,5.3,23.2,5.1,23.2z"/>
</svg>
